svgs/sharp-regular/vector-square.svg

<svg xmlns="http://www.w3.org/2000/svg" viewBox="0 0 448 512"><!--! Font Awesome Pro 6.6.0 by @fontawesome - https://fontawesome.com License - https://fontawesome.com/license (Commercial License) Copyright 2024 Fonticons, Inc. --><path d="M408 72l0 48-48 0 0-48 48 0zM360 32l-40 0 0 40L128 72l0-40L88 32 40 32 0 32 0 72l0 48 0 40 40 0 0 192L0 352l0 40 0 48 0 40 40 0 48 0 40 0 0-40 192 0 0 40 40 0 48 0 40 0 0-40 0-48 0-40-40 0 0-192 40 0 0-40 0-48 0-40-40 0-48 0zM88 352l0-192 40 0 0-40 192 0 0 40 40 0 0 192-40 0 0 40-192 0 0-40-40 0zM40 392l48 0 0 48-48 0 0-48zm320 0l48 0 0 48-48 0 0-48zM40 72l48 0 0 48-48 0 0-48z"/></svg>

<svg xmlns="http://www.w3.org/2000/svg" viewBox="0 0 448 512"><!--! Font Awesome Pro 6.4.2 by @fontawesome - https://fontawesome.com License - https://fontawesome.com/license (Commercial License) Copyright 2023 Fonticons, Inc. --><path d="M408 72v48H360V72h48zM360 32H320V72H128V32H88 40 0V72v48 40H40V352H0v40 48 40H40 88h40V440H320v40h40 48 40V440 392 352H408V160h40V120 72 32H408 360zM88 352V160h40V120H320v40h40V352H320v40H128V352H88zM40 392H88v48H40V392zm320 0h48v48H360V392zM40 72H88v48H40V72z"/></svg>
